packages/core/src/svgs/tokens/mono/SFTMX.svg

<svg width="24" height="24" viewBox="0 0 24 24" fill="none" xmlns="http://www.w3.org/2000/svg">
<path d="M6.51335 2L2 6.51335L3.93334 8.12668C4.45333 5.80667 6.94668 4.36667 8.13335 3.93334L6.50667 2H6.51335ZM17.16 2L15.5468 3.93334C18.3867 6.00001 19.5267 8.02001 19.7468 8.77334L22 6.84001L17.16 2ZM17.16 21.68L15.2266 19.4134C17.8067 18.9001 19.0934 16.1934 19.4201 14.9L21.68 17.1667L17.16 21.68ZM8.77334 20.0668L6.84001 22L2.31999 17.4867L3.93334 15.8734C4.96667 18.4533 7.59334 19.7401 8.77334 20.0668Z" fill="white"/>
<path fill-rule="evenodd" clip-rule="evenodd" d="M11.9999 6.6665L15.3332 8.13318V15.1999L11.9999 17.3331L8.6665 15.1999V8.13318L11.9999 6.6665ZM9.33322 8.9199V11.1066L11.3131 10.0132L9.33322 8.9199ZM11.6666 10.5732L9.63982 11.6932L11.6666 13.0331V10.5732ZM12.3331 13.0398L14.3599 11.6932L12.3331 10.5732V13.0398ZM14.6665 12.2864L11.9999 14.0532L9.33322 12.2864V14.7665L11.9999 16.3332L14.6665 14.7665V12.2864ZM14.6665 11.1066L12.6865 10.0132L14.6665 8.9199V11.1066ZM14.2531 8.3865L11.9999 9.63313L9.74653 8.3865L11.9999 7.38651L14.2531 8.3865Z" fill="white"/>
</svg>

<svg xmlns="http://www.w3.org/2000/svg" width="24" height="24" fill="none" viewBox="0 0 24 24">
    <path fill="#fff" d="M6.513 2 2 6.513l1.933 1.614c.52-2.32 3.014-3.76 4.2-4.194L6.507 2zM17.16 2l-1.613 1.933c2.84 2.067 3.98 4.087 4.2 4.84L22 6.84zm0 19.68-1.933-2.267c2.58-.513 3.866-3.22 4.193-4.513l2.26 2.267zm-8.387-1.613L6.84 22l-4.52-4.513 1.613-1.614c1.034 2.58 3.66 3.867 4.84 4.194"/>
    <path fill="#fff" fill-rule="evenodd" d="m12 6.667 3.333 1.466V15.2L12 17.333 8.666 15.2V8.133zM9.333 8.92v2.187l1.98-1.094zm2.334 1.653-2.027 1.12 2.027 1.34zm.666 2.467 2.027-1.347-2.027-1.12zm2.333-.754L12 14.053l-2.667-1.767v2.48L12 16.334l2.666-1.566zm0-1.18-1.98-1.093 1.98-1.093zm-.413-2.72L12 9.634 9.747 8.387l2.253-1z" clip-rule="evenodd"/>
</svg>
